src/render/svg/md.svg

<svg class="icon" viewBox="0 0 1024 1024" version="1.1" xmlns="http://www.w3.org/2000/svg">
  <path
    d="M854.641778 329.386667l-224.028445-224.028445a32.085333 32.085333 0 0 0-22.641777-9.386666h-384a64 64 0 0 0-63.943112 64v288.028444a32.028444 32.028444 0 1 0 63.943112 0V159.971556h352.028444v192.056888a32.028444 32.028444 0 0 0 32.028444 31.971556h191.943112v512a31.971556 31.971556 0 1 0 64.056888 0V351.971556a31.857778 31.857778 0 0 0-9.386666-22.584889zM640 205.255111l114.744889 114.744889H640V205.255111z m-64 370.744889H512a32.028444 32.028444 0 0 0-32.028444 32.028444v223.971556a31.971556 31.971556 0 0 0 32.028444 32.028444h64a143.985778 143.985778 0 0 0 0-288.028444z m0 224.028444h-32.028444V640h32.028444a80.042667 80.042667 0 0 1 0 160.028444z m-160.028444-192.056888v224.028444a31.971556 31.971556 0 1 1-64 0v-122.481778l-53.76 76.8a31.971556 31.971556 0 0 1-52.394667 0l-53.816889-76.8v122.481778a31.971556 31.971556 0 1 1-64 0v-224.028444a31.971556 31.971556 0 0 1 58.197333-18.318223l85.788445 122.538667 85.788444-122.538667a32.028444 32.028444 0 0 1 58.254222 18.318223z"
    ></path>
</svg>

<svg xmlns="http://www.w3.org/2000/svg" class="icon" viewBox="0 0 1024 1024">
    <path d="M854.64178 329.38667 630.61333 105.35822a32.0853 32.0853 0 0 0-22.64177-9.38666h-384a64 64 0 0 0-63.94312 64V448a32.02844 32.02844 0 1 0 63.94312 0V159.97156H576v192.05688A32.02844 32.02844 0 0 0 608.02844 384h191.94312v512a31.97156 31.97156 0 1 0 64.05688 0V351.97156a31.8578 31.8578 0 0 0-9.38666-22.5849M640 205.2551 754.74489 320H640zM576 576h-64a32.02844 32.02844 0 0 0-32.02844 32.02844V832A31.97156 31.97156 0 0 0 512 864.02844h64A143.98578 143.98578 0 0 0 576 576m0 224.02844h-32.02844V640H576a80.04267 80.04267 0 0 1 0 160.02844M415.97156 607.97156V832a31.97156 31.97156 0 1 1-64 0V709.51822l-53.76 76.8a31.97156 31.97156 0 0 1-52.39467 0L192 709.51822V832a31.97156 31.97156 0 1 1-64 0V607.97156a31.97156 31.97156 0 0 1 58.19733-18.31823L271.98578 712.192l85.78844-122.53867a32.02844 32.02844 0 0 1 58.25422 18.31823z"/>
</svg>
